static/logos/yelp-glyph-color.svg

<svg width="50" height="66" viewBox="0 0 50 66" fill="none" xmlns="http://www.w3.org/2000/svg">
<g clip-path="url(#clip0_1_347)">
<path d="M1.27301 31.6926C0.204721 33.403 -0.243099 38.7822 0.129185 42.3486C0.258675 43.5248 0.474492 44.5068 0.78203 45.0949C1.20827 45.9042 1.92586 46.3898 2.74057 46.4167C3.26392 46.4437 3.59304 46.352 13.4397 43.1849C13.4397 43.1849 17.8154 41.7875 17.837 41.7767C18.9268 41.4961 19.666 40.4926 19.7361 39.2139C19.8063 37.8974 19.1319 36.7374 18.0096 36.3219C18.0096 36.3219 14.9234 35.0648 14.918 35.0648C4.33222 30.6999 3.85742 30.5272 3.32327 30.5218C2.50317 30.4949 1.78018 30.9049 1.27301 31.6926V31.6926ZM24.9481 64.2216C25.1208 63.7253 25.1423 63.3853 25.1693 53.0369C25.1693 53.0369 25.1909 48.467 25.1963 48.4184C25.2664 47.2962 24.5435 46.2765 23.3565 45.8179C22.1317 45.3485 20.8152 45.6398 20.0761 46.557C20.0761 46.557 17.9179 49.1199 17.9071 49.1199C10.4938 57.8281 10.1809 58.2327 10.0028 58.7453C9.8895 59.0474 9.85173 59.3711 9.8841 59.6949C9.92727 60.1589 10.1377 60.6121 10.483 61.0383C12.2041 63.0832 20.4483 66.1154 23.0813 65.6622C24.0039 65.5057 24.6676 64.9932 24.9481 64.2216ZM41.6793 60.6229C44.1666 59.6301 49.589 52.7348 49.9721 50.0748C50.107 49.1522 49.8156 48.3537 49.1789 47.8465C48.7635 47.5336 48.4452 47.4095 38.5985 44.1776C38.5985 44.1776 34.2822 42.7533 34.2228 42.7263C33.1761 42.3216 31.9837 42.6993 31.1852 43.6867C30.3489 44.701 30.2248 46.0445 30.8939 47.0534L32.6312 49.8806C38.4744 59.3711 38.9222 60.0402 39.3431 60.3693C39.9905 60.8819 40.816 60.9682 41.6793 60.6229ZM36.5914 36.1924C47.7761 33.4839 48.2132 33.3382 48.6502 33.0469C49.33 32.5883 49.6699 31.8275 49.6106 30.8995C49.6106 30.8725 49.616 30.8402 49.6106 30.8078C49.3246 28.0561 44.5119 20.9126 42.1379 19.7526C41.2962 19.3479 40.4545 19.3749 39.7585 19.8443C39.3269 20.1249 39.0086 20.5511 33.0197 28.7467C33.0197 28.7467 30.3166 32.4318 30.2842 32.4696C29.572 33.3382 29.5612 34.5792 30.2572 35.6475C30.9802 36.7535 32.1996 37.2877 33.3164 36.9802C33.3164 36.9802 33.2732 37.0611 33.2625 37.0719C33.8128 36.8615 34.7948 36.6187 36.5914 36.1924V36.1924ZM25.3636 26.9555C25.1693 22.5204 23.8367 2.77859 23.6802 1.86676C23.4536 1.03587 22.8061 0.447769 21.8781 0.21037C19.0185 -0.49643 8.10361 2.56277 6.08033 4.6454C5.42749 5.32523 5.19009 6.15612 5.38432 6.89529C5.70265 7.54814 19.229 28.8277 19.229 28.8277C21.2253 32.0703 22.8601 31.5632 23.3942 31.3959C23.923 31.2394 25.547 30.7323 25.3636 26.9555" fill="#FF1919"/>
</g>
<defs>
<clipPath id="clip0_1_347">
<rect width="50" height="65.8241" fill="white"/>
</clipPath>
</defs>
</svg>

<svg xmlns="http://www.w3.org/2000/svg" width="48.485" height="64" fill="none" viewBox="0 0 50 66"><g clip-path="url(#a)"><path fill="#FF1919" d="M1.273 31.693C.205 33.403-.243 38.783.129 42.349c.13 1.176.345 2.158.653 2.746.426.81 1.144 1.295 1.959 1.322.523.027.852-.065 10.699-3.232 0 0 4.375-1.398 4.397-1.408 1.09-.28 1.829-1.284 1.9-2.563.07-1.317-.605-2.477-1.727-2.892 0 0-3.087-1.257-3.092-1.257C4.332 30.7 3.858 30.527 3.323 30.522c-.82-.027-1.543.383-2.05 1.17Zm23.675 32.529c.173-.497.194-.837.221-11.185 0 0 .022-4.57.027-4.619.07-1.122-.652-2.142-1.84-2.6-1.224-.47-2.54-.178-3.28.739 0 0-2.158 2.563-2.169 2.563-7.413 8.708-7.726 9.113-7.904 9.625a2.101 2.101 0 0 0-.119.95c.043.464.254.917.599 1.343 1.721 2.045 9.965 5.077 12.598 4.624.923-.156 1.587-.669 1.867-1.44Zm16.731-3.6c2.488-.992 7.91-7.887 8.293-10.547.135-.923-.156-1.721-.793-2.229-.416-.312-.734-.436-10.58-3.668 0 0-4.317-1.425-4.376-1.452-1.047-.404-2.24-.027-3.038.96-.836 1.015-.96 2.358-.291 3.367l1.737 2.828c5.843 9.49 6.291 10.16 6.712 10.488.647.513 1.473.6 2.336.254Zm-5.088-24.43c11.185-2.708 11.622-2.854 12.06-3.145.679-.459 1.019-1.22.96-2.147 0-.027.005-.06 0-.092-.286-2.752-5.1-9.895-7.473-11.055-.842-.405-1.683-.378-2.38.091-.431.28-.75.707-6.738 8.903 0 0-2.703 3.685-2.736 3.723-.712.868-.723 2.11-.027 3.178.723 1.105 1.943 1.64 3.06 1.332 0 0-.044.081-.054.092.55-.21 1.532-.453 3.328-.88Zm-11.227-9.236c-.195-4.436-1.527-24.177-1.684-25.09-.226-.83-.874-1.418-1.802-1.656C19.018-.496 8.104 2.563 6.08 4.645c-.653.68-.89 1.511-.696 2.25.319.653 13.845 21.933 13.845 21.933 1.996 3.242 3.631 2.735 4.165 2.568.529-.157 2.153-.664 1.97-4.44"/></g><defs><clipPath id="a"><path fill="#fff" d="M0 0h50v65.824H0z"/></clipPath></defs></svg>
